rospo-dark/16x16/panel/wechat-tray-unread.svg

<svg height="22" width="22" xmlns="http://www.w3.org/2000/svg"><path d="m10 3a7 6.5 0 0 0 -7 6.5 7 6.5 0 0 0 2 4.546875v2.953125l1.3203125-1.980469a7 6.5 0 0 0 2.2617187.833985c-.3689268-.710455-.5820312-1.505434-.5820312-2.353516 0-2.439883 1.7230409-4.4546167 4.048828-5.1933594a1 1 0 0 1 -.048828-.3066406 1 1 0 0 1 1-1 1 1 0 0 1 1 1c1.061383 0 2.066598.2619524 2.943359.7167969a7 6.5 0 0 0 -6.943359-5.7167969zm-3 4a1 1 0 0 1 1 1 1 1 0 0 1 -1 1 1 1 0 0 1 -1-1 1 1 0 0 1 1-1zm7 2a5 4.5 0 0 0 -5 4.5 5 4.5 0 0 0 5 4.5 5 4.5 0 0 0 1.009766-.095703c.052414-1.600572 1.377942-2.904297 2.990234-2.904297.231334 0 .454974.0314.671875.082031a5 4.5 0 0 0  .328125-1.582031 5 4.5 0 0 0 -5-4.5zm-2 2a1 1 0 0 1 1 1 1 1 0 0 1 -1 1 1 1 0 0 1 -1-1 1 1 0 0 1 1-1zm4 0a1 1 0 0 1 1 1 1 1 0 0 1 -1 1 1 1 0 0 1 -1-1 1 1 0 0 1 1-1zm2 6c-.425919 0-.778472.248751-.925781.613281l.925781 1.386719z" fill="#d3dae3"/><circle cx="18" cy="18" fill="#5294e2" r="2"/></svg>

<svg xmlns="http://www.w3.org/2000/svg" width="22" height="22" version="1.1">
 <defs>
  <style id="current-color-scheme" type="text/css">
   .ColorScheme-Text { color:#d3dae3; } .ColorScheme-Highlight { color:#5294e2; }
  </style>
 </defs>
 <path style="fill:currentColor" class="ColorScheme-Text" d="M 10 3 A 7 6.5 0 0 0 3 9.5 A 7 6.5 0 0 0 5 14.046875 L 5 17 L 6.3203125 15.019531 A 7 6.5 0 0 0 8.5820312 15.853516 C 8.2131044 15.143061 8 14.348082 8 13.5 C 8 11.060117 9.7230409 9.0453833 12.048828 8.3066406 A 1 1 0 0 1 12 8 A 1 1 0 0 1 13 7 A 1 1 0 0 1 14 8 C 15.061383 8 16.066598 8.2619524 16.943359 8.7167969 A 7 6.5 0 0 0 10 3 z M 7 7 A 1 1 0 0 1 8 8 A 1 1 0 0 1 7 9 A 1 1 0 0 1 6 8 A 1 1 0 0 1 7 7 z M 14 9 A 5 4.5 0 0 0 9 13.5 A 5 4.5 0 0 0 14 18 A 5 4.5 0 0 0 15.009766 17.904297 C 15.06218 16.303725 16.387708 15 18 15 C 18.231334 15 18.454974 15.0314 18.671875 15.082031 A 5 4.5 0 0 0 19 13.5 A 5 4.5 0 0 0 14 9 z M 12 11 A 1 1 0 0 1 13 12 A 1 1 0 0 1 12 13 A 1 1 0 0 1 11 12 A 1 1 0 0 1 12 11 z M 16 11 A 1 1 0 0 1 17 12 A 1 1 0 0 1 16 13 A 1 1 0 0 1 15 12 A 1 1 0 0 1 16 11 z M 18 17 C 17.574081 17 17.221528 17.248751 17.074219 17.613281 L 18 19 L 18 17 z"/>
 <circle style="fill:currentColor" class="ColorScheme-Highlight" cx="18" cy="18" r="2"/>
</svg>
